X:22
T:Les Quatre Rigodons
R:Rigodon
C:Trad.
A:Hautes-Alpes - France
B:Répertoire "Pays-Gavot"
G:Accordion
%%MIDI program 21 %Accordian
M:2/4
L:1/8
Q:180
K:C
z3E|:[AA,][A/A,/]B/[cA,][c/A,/]B/|1[A/A,/]B/[c/A,/]B/[AA,][EA,]:| \
K:G
|2[A/A,/]B/[c/A,/]B/[AA,]A,|:[d/G,/]e/[d/G,/]e/[dG,][A/G,/]B/|[c/A,/]c/[B/E,/]A/[BG,][GG,]|[d/G,/]e/[d/G,/]e/[dG,][A/D,/]B/|1[c/A,/]c/[B/E,/]A/[GG,]G,:|2[c/A,/]c/[B/E,/]A/[GG,]E| \
K:C
Z:Transcrit par Alex avec l'aide de TablEdit http://www.tabledit.com/


